vendor/shopware/storefront/Resources/app/storefront/dist/assets/icon/solid/arrow-left.svg

<svg xmlns="http://www.w3.org/2000/svg" xmlns:xlink="http://www.w3.org/1999/xlink" width="16" height="16" viewBox="0 0 16 16">
  <defs>
    <path id="icons-small-arrow-small-left-a" d="M5.20710678,5.79289322 C4.81658249,5.40236893 4.18341751,5.40236893 3.79289322,5.79289322 C3.40236893,6.18341751 3.40236893,6.81658249 3.79289322,7.20710678 L6.79289322,10.2071068 C7.18341751,10.5976311 7.81658249,10.5976311 8.20710678,10.2071068 L11.2071068,7.20710678 C11.5976311,6.81658249 11.5976311,6.18341751 11.2071068,5.79289322 C10.8165825,5.40236893 10.1834175,5.40236893 9.79289322,5.79289322 L7.5,8.08578644 L5.20710678,5.79289322 Z"/>
  </defs>
  <use fill="#758CA3" fill-rule="evenodd" transform="matrix(0 -1 -1 0 15.5 15.5)" xlink:href="#icons-small-arrow-small-left-a"/>
</svg>

<svg xmlns="http://www.w3.org/2000/svg" xmlns:xlink="http://www.w3.org/1999/xlink" width="16" height="16" viewBox="0 0 16 16"><defs><path id="icons-small-arrow-small-left-a" d="M5.2071 5.7929c-.3905-.3905-1.0237-.3905-1.4142 0-.3905.3905-.3905 1.0237 0 1.4142l3 3c.3905.3905 1.0237.3905 1.4142 0l3-3c.3905-.3905.3905-1.0237 0-1.4142-.3905-.3905-1.0237-.3905-1.4142 0L7.5 8.0858l-2.2929-2.293z"/></defs><use fill="#758CA3" fill-rule="evenodd" transform="matrix(0 -1 -1 0 15.5 15.5)" xlink:href="#icons-small-arrow-small-left-a"/></svg>
